X:1
T:Lord Rendle
M:6/8
L:1/8
K:G
 BAGd-e d| BAB G3| BAG d3/2- e/2- d| cBA G2 d| ee f/2f/2g-f e| ded B2 B/2A/2|\
 Gdd d3/2 d/2 d| cBA G3|||
